data/zcool-kuaile.svg

<svg width="99.96" height="14" viewBox="0 0 99.96 14" xmlns="http://www.w3.org/2000/svg"><path transform="translate(0 12.32) scale(.014 -.014)" d="m35 90 466 491-436 35 9 95 534-45 30-79-449-472 520 45 9-94-644-56z"/><path transform="translate(10.542 12.32) scale(.014 -.014)" d="m50 47 68 634 53 42 515-76-13-94-467 69-56-526 559 60 10-94-616-66z"/><path transform="translate(21.378 12.32) scale(.014 -.014)" d="m106 11-46 51 45 564 43 42 442 45 53-46 21-614-48-48zm463 89-19 515-355-37-36-473z"/><path transform="translate(31.514 12.32) scale(.014 -.014)" d="m106 11-46 51 45 564 43 42 442 45 53-46 21-614-48-48zm463 89-19 515-355-37-36-473z"/><path transform="translate(41.65 12.32) scale(.014 -.014)" d="m110 16-45 53 71 647 94-11-65-596 419-13-4-93z"/><path transform="translate(53.606 12.32) scale(.014 -.014)" d="m65-1 96 734 94-11-96-735zm196 293 5 70 294 232 59-74-254-201 241-254-67-65z"/><path transform="translate(62.412 12.32) scale(.014 -.014)" d="m431 90-316-52-55 49 24 404 94-5-20-345 251 40 21 311 95-8-22-327 85-51-49-80z"/><path transform="translate(70.644 12.32) scale(.014 -.014)" d="m545 34-18 21-413-66-54 57 58 229 45 36h316l-21 156-360-88-23 91 411 101 58-40 56-415 70-20-25-90zm-44 113-9 69h-292l-31-122z"/><path transform="translate(80.164 12.32) scale(.014 -.014)" d="m75 586 91 25 30-112-91-25zm-25-567 49 397 94-11-49-397z"/><path transform="translate(83.468 12.32) scale(.014 -.014)" d="m110 16-45 53 71 647 94-11-65-596 419-13-4-93z"/><path transform="translate(91.924 12.32) scale(.014 -.014)" d="m88 60-38 53 48 356 42 40 293 24 46-25 85-168-33-67-311-65-20 91 251 54-42 83-224-17-36-275 344-64-18-92z"/></svg>

<?xml version="1.0" encoding="utf-8" ?>
<svg baseProfile="tiny" height="100%" version="1.2" width="100%" xmlns="http://www.w3.org/2000/svg" xmlns:ev="http://www.w3.org/2001/xml-events" xmlns:xlink="http://www.w3.org/1999/xlink"><defs /><g><path d="M35 90 501 581 65 616 74 711 608 666 638 587 189 115 709 160 718 66 74 10Z" transform="translate(0.0, 72) scale(0.072, -0.072)" /><path d="M50 47 118 681 171 723 686 647 673 553 206 622 150 96 709 156 719 62 103 -4Z" transform="translate(54.215999999999994, 72) scale(0.072, -0.072)" /><path d="M106 11 60 62 105 626 148 668 590 713 643 667 664 53 616 5ZM569 100 550 615 195 578 159 105Z" transform="translate(109.94399999999999, 72) scale(0.072, -0.072)" /><path d="M106 11 60 62 105 626 148 668 590 713 643 667 664 53 616 5ZM569 100 550 615 195 578 159 105Z" transform="translate(162.07199999999997, 72) scale(0.072, -0.072)" /><path d="M110 16 65 69 136 716 230 705 165 109 584 96 580 3Z" transform="translate(214.19999999999996, 72) scale(0.072, -0.072)" /><path d="M65 -1 161 733 255 722 159 -13ZM261 292 266 362 560 594 619 520 365 319 606 65 539 0Z" transform="translate(275.688, 72) scale(0.072, -0.072)" /><path d="M431 90 115 38 60 87 84 491 178 486 158 141 409 181 430 492 525 484 503 157 588 106 539 26Z" transform="translate(320.976, 72) scale(0.072, -0.072)" /><path d="M545 34 527 55 114 -11 60 46 118 275 163 311H479L458 467L98 379L75 470L486 571L544 531L600 116L670 96L645 6ZM501 147 492 216H200L169 94Z" transform="translate(363.312, 72) scale(0.072, -0.072)" /><path d="M75 586 166 611 196 499 105 474ZM50 19 99 416 193 405 144 8Z" transform="translate(412.272, 72) scale(0.072, -0.072)" /><path d="M110 16 65 69 136 716 230 705 165 109 584 96 580 3Z" transform="translate(429.264, 72) scale(0.072, -0.072)" /><path d="M88 60 50 113 98 469 140 509 433 533 479 508 564 340 531 273 220 208 200 299 451 353 409 436 185 419 149 144 493 80 475 -12Z" transform="translate(472.752, 72) scale(0.072, -0.072)" /></g></svg>
